assets/01_base/Base_8.svg

<svg width="500" height="500" viewBox="0 0 500 500" fill="none" xmlns="http://www.w3.org/2000/svg">
<g clip-path="url(#clip0_70_70)">
<g clip-path="url(#clip1_70_70)">
<path d="M452.453 71.1807C397.054 15.8374 307.239 15.8374 251.839 71.1807L251.804 71.2159C250.935 70.3004 250.065 69.3965 249.161 68.5045C193.761 13.1612 103.946 13.1612 48.5468 68.5045C-6.85284 123.848 -6.85284 213.571 48.5468 268.914C49.4398 269.806 50.3445 270.687 51.261 271.555L51.2257 271.59L251.839 472L452.453 271.59C507.853 216.247 507.853 126.524 452.453 71.1807Z" fill="#DF3B94"/>
<path d="M426.768 122.486C378.466 74.2326 300.142 74.2326 251.84 122.486L251.804 122.521C251.052 121.723 250.289 120.937 249.501 120.162C201.198 71.9085 122.875 71.9085 74.5724 120.162C26.2695 168.416 26.2695 246.659 74.5724 294.913C75.3478 295.688 76.1351 296.463 76.934 297.214L76.8988 297.249L251.828 472L426.757 297.249C475.06 248.995 475.06 170.752 426.757 122.498L426.768 122.486Z" fill="#FF69FF"/>
<path d="M399.404 177.172C358.656 136.466 292.587 136.466 251.84 177.172L251.816 177.196C251.182 176.527 250.535 175.858 249.877 175.2C209.13 134.494 143.061 134.494 102.313 175.2C61.5655 215.907 61.5655 281.908 102.313 322.614C102.971 323.271 103.641 323.917 104.311 324.551L104.287 324.574L251.851 471.988L399.415 324.574C440.163 283.868 440.163 217.867 399.415 177.161L399.404 177.172Z" fill="#FFCFFE"/>
</g>
</g>
<defs>
<clipPath id="clip0_70_70">
<rect width="500" height="500" fill="white"/>
</clipPath>
<clipPath id="clip1_70_70">
<rect width="487" height="445" fill="white" transform="translate(7 27)"/>
</clipPath>
</defs>
</svg>

<svg xmlns="http://www.w3.org/2000/svg" width="500" height="500" fill="none" viewBox="0 0 500 500"><g clip-path="url(#a)"><g clip-path="url(#b)"><path fill="#df3b94" d="M452.453 71.18c-55.399-55.343-145.214-55.343-200.614 0l-.035.036a114 114 0 0 0-2.643-2.712c-55.4-55.343-145.215-55.343-200.614 0s-55.4 145.067 0 200.41q1.339 1.339 2.714 2.641l-.035.035L251.839 472l200.614-200.41c55.4-55.343 55.4-145.066 0-200.41"/><path fill="#ff69ff" d="M426.768 122.486c-48.302-48.253-126.626-48.253-174.928 0l-.036.035a87 87 0 0 0-2.303-2.359c-48.303-48.253-126.626-48.253-174.929 0s-48.302 126.497 0 174.751c.776.775 1.563 1.55 2.362 2.301l-.035.035L251.828 472l174.929-174.751c48.303-48.254 48.303-126.497 0-174.751z"/><path fill="#ffcffe" d="M399.404 177.172c-40.748-40.706-106.817-40.706-147.564 0l-.024.024a104 104 0 0 0-1.939-1.996c-40.747-40.706-106.816-40.706-147.564 0s-40.747 106.708 0 147.414c.658.657 1.328 1.303 1.998 1.937l-.024.023 147.564 147.414 147.564-147.414c40.748-40.706 40.748-106.707 0-147.413z"/></g></g><defs><clipPath id="a"><path fill="#fff" d="M0 0h500v500H0z"/></clipPath><clipPath id="b"><path fill="#fff" d="M7 27h487v445H7z"/></clipPath></defs></svg>
